X:1
T:Hambo efter Erik Nilsson
R:Hambo
Z:Erik Ronstrm 2007-09-11
O:Jmtland
S:efter Erik Nilsson, Jmtland
S:knd genom Kjell Erik Eriksson
M:3/4
L:1/8
K:D
G,>B, D<G B2|C>E G>c e2|d>c A>F (3DEF|G>D (3B,DB, G2|
G,>B, D<G B2|C>E G>c e2|d>c A>F (3DEF|G2 G4:|
|:{B}d2 d>B (3GBd|e>d c>B c2|A2 A>F (3DEF|G2 B<d g2|
{B}d2 d>B (3GBd|e>d c>B c2|A2 A>F (3DEF|G2 G4:|
